svg/set/ZNC/T.svg

<?xml version="1.0" encoding="UTF-8" standalone="no"?>
<svg
   width="356.91452"
   height="374.73074"
   viewBox="0 0 356.91452 374.73074"
   version="1.1"
   xml:space="preserve"
   style="clip-rule:evenodd;fill-rule:evenodd;stroke-linejoin:round;stroke-miterlimit:2"
   id="svg6"
   xmlns="http://www.w3.org/2000/svg"
   xmlns:svg="http://www.w3.org/2000/svg"
   xmlns:serif="http://www.serif.com/">
    <g
   id="Layer-2"
   serif:id="Layer 2"
   transform="translate(-521.5222,-93.620842)">
        <g
   id="path851"
   transform="scale(0.264583)">
            <path
   d="m 2397.32,353.843 c -217.68,145.981 -388.52,324.238 -426.21,602.363 97.03,61.154 181.46,92.814 188.3,184.254 v 101.24 l -133.63,127.56 416.09,400.89 h 164 v -613.49 l -89.98,-89.22 89.98,-86.94 V 565.429 Z m 496.55,0 -208.55,211.586 V 980.5 l 89.98,86.94 -89.98,89.22 v 613.49 h 164 l 416.09,-400.89 -133.63,-127.56 v -101.24 c 6.84,-91.44 91.27,-123.1 188.3,-184.254 -37.69,-278.125 -208.53,-456.382 -426.21,-602.363 z"
   style="fill-rule:nonzero"
   id="path1" />
        </g>
        <g
   id="path838"
   transform="matrix(0.264583,0,0,0.264583,2.43797e-5,-1.92922)">
            <path
   d="m 2390.14,424.339 c -167.08,106.185 -323.9,284.159 -360.38,502.745 0.08,0.043 94.86,56.174 128.77,90.086 33.93,33.93 54.92,80.8 54.92,132.58 0,50.63 0.62,73.75 0.65,74.78 l 80.2,-80.21 -76.99,-76.99 78.34,-78.349 -160.14,-160.146 277.74,-277.734 140.22,140.215 V 586.052 Z m 510.91,0 -163.33,161.713 v 105.264 l 140.23,-140.215 277.73,277.734 -160.14,160.146 78.35,78.349 -77,76.99 80.21,80.21 c 0.02,-1.03 0.64,-24.15 0.64,-74.78 0,-51.78 20.99,-98.65 54.92,-132.58 33.92,-33.912 128.7,-90.043 128.77,-90.086 -36.48,-218.586 -193.3,-396.56 -360.38,-502.745 z m -487.01,163.064 -241.06,241.061 161,160.999 -78.21,78.207 78.21,78.21 -161,161 241.06,241.05 139.43,-139.43 V 1182.63 L 2437.7,1066.87 2553.47,951.101 V 726.832 Z m 463.11,0 -139.43,139.429 v 224.269 l 115.77,115.769 -115.77,115.76 v 225.87 l 139.43,139.43 241.06,-241.05 -161,-161 78.21,-78.21 -78.21,-78.207 161,-160.999 z m -463.18,129.17 112.5,112.494 -112.5,112.495 -112.49,-112.495 z m 463.25,0 112.48,112.494 -112.48,112.495 -112.5,-112.495 z m -463.25,477.647 112.5,112.49 -112.5,112.49 -112.49,-112.49 z m 463.25,0 112.48,112.49 -112.48,112.49 -112.5,-112.49 z m -725.5,131.18 -44.65,46.24 287.48,277.62 67.29,64.98 h 91.63 V 1448.3 l -139.43,139.43 -189.4,-189.39 0.01,-0.01 z m 987.75,0 -72.93,72.93 v 0.01 l -189.4,189.39 -139.43,-139.43 v 265.94 h 91.63 l 67.29,-64.98 287.49,-277.62 z"
   style="fill:url(#_Radial1);fill-rule:nonzero"
   id="path2" />
        </g>
        <g
   id="path947"
   transform="scale(0.264583)">
            <path
   d="m 2413.03,752.366 -75.76,75.76 75.76,75.755 75.76,-75.755 z m 465.13,0 -75.75,75.76 75.75,75.755 75.76,-75.755 z m -465.13,479.034 -75.76,75.75 75.76,75.76 75.76,-75.76 z m 465.13,0 -75.75,75.75 75.75,75.76 75.76,-75.76 z"
   style="fill:#ffffff;fill-rule:nonzero"
   id="path3" />
        </g>
    </g>
    <defs
   id="defs6">
        <radialGradient
   id="_Radial1"
   cx="0"
   cy="0"
   r="1"
   gradientUnits="userSpaceOnUse"
   gradientTransform="matrix(615.835,0,0,644.951,2645.6,1069.29)"><stop
     offset="0"
     style="stop-color:rgb(97,44,117);stop-opacity:1"
     id="stop3" /><stop
     offset="0"
     style="stop-color:rgb(191,153,195);stop-opacity:1"
     id="stop4" /><stop
     offset="0.7"
     style="stop-color:rgb(123,81,144);stop-opacity:1"
     id="stop5" /><stop
     offset="1"
     style="stop-color:rgb(97,44,117);stop-opacity:1"
     id="stop6" /></radialGradient>
    </defs>
</svg>

<?xml version="1.0" encoding="UTF-8" standalone="no"?>
<!DOCTYPE svg PUBLIC "-//W3C//DTD SVG 1.1//EN" "http://www.w3.org/Graphics/SVG/1.1/DTD/svg11.dtd">
<svg width="100%" height="100%" viewBox="0 0 357 375" version="1.1" xmlns="http://www.w3.org/2000/svg" xmlns:xlink="http://www.w3.org/1999/xlink" xml:space="preserve" xmlns:serif="http://www.serif.com/" style="fill-rule:evenodd;clip-rule:evenodd;stroke-linejoin:round;stroke-miterlimit:2;">
    <g id="Layer-2" serif:id="Layer 2" transform="matrix(1,0,0,1,-521.524,-93.6211)">
        <g id="path851" transform="matrix(0.264583,0,0,0.264583,0,0)">
            <path d="M2397.32,353.843C2179.64,499.824 2008.8,678.081 1971.11,956.206C2068.14,1017.36 2152.57,1049.02 2159.41,1140.46L2159.41,1241.7L2025.78,1369.26L2441.87,1770.15L2605.87,1770.15L2605.87,1156.66L2515.89,1067.44L2605.87,980.5L2605.87,565.429L2397.32,353.843ZM2893.87,353.843L2685.32,565.429L2685.32,980.5L2775.3,1067.44L2685.32,1156.66L2685.32,1770.15L2849.32,1770.15L3265.41,1369.26L3131.78,1241.7L3131.78,1140.46C3138.62,1049.02 3223.05,1017.36 3320.08,956.206C3282.39,678.081 3111.55,499.824 2893.87,353.843Z" style="fill-rule:nonzero;"/>
        </g>
        <g id="path838" transform="matrix(0.264583,0,0,0.264583,2.43797e-05,-1.92922)">
            <path d="M2390.14,424.339C2223.06,530.524 2066.24,708.498 2029.76,927.084C2029.84,927.127 2124.62,983.258 2158.53,1017.17C2192.46,1051.1 2213.45,1097.97 2213.45,1149.75C2213.45,1200.38 2214.07,1223.5 2214.1,1224.53L2294.3,1144.32L2217.31,1067.33L2295.65,988.981L2135.51,828.835L2413.25,551.101L2553.47,691.316L2553.47,586.052L2390.14,424.339ZM2901.05,424.339L2737.72,586.052L2737.72,691.316L2877.95,551.101L3155.68,828.835L2995.54,988.981L3073.89,1067.33L2996.89,1144.32L3077.1,1224.53C3077.12,1223.5 3077.74,1200.38 3077.74,1149.75C3077.74,1097.97 3098.73,1051.1 3132.66,1017.17C3166.58,983.258 3261.36,927.127 3261.43,927.084C3224.95,708.498 3068.13,530.524 2901.05,424.339ZM2414.04,587.403L2172.98,828.464L2333.98,989.463L2255.77,1067.67L2333.98,1145.88L2172.98,1306.88L2414.04,1547.93L2553.47,1408.5L2553.47,1182.63L2437.7,1066.87L2553.47,951.101L2553.47,726.832L2414.04,587.403ZM2877.15,587.403L2737.72,726.832L2737.72,951.101L2853.49,1066.87L2737.72,1182.63L2737.72,1408.5L2877.15,1547.93L3118.21,1306.88L2957.21,1145.88L3035.42,1067.67L2957.21,989.463L3118.21,828.464L2877.15,587.403ZM2413.97,716.573L2526.47,829.067L2413.97,941.562L2301.48,829.067L2413.97,716.573ZM2877.22,716.573L2989.7,829.067L2877.22,941.562L2764.72,829.067L2877.22,716.573ZM2413.97,1194.22L2526.47,1306.71L2413.97,1419.2L2301.48,1306.71L2413.97,1194.22ZM2877.22,1194.22L2989.7,1306.71L2877.22,1419.2L2764.72,1306.71L2877.22,1194.22ZM2151.72,1325.4L2107.07,1371.64L2394.55,1649.26L2461.84,1714.24L2553.47,1714.24L2553.47,1448.3L2414.04,1587.73L2224.64,1398.34L2224.65,1398.33L2151.72,1325.4ZM3139.47,1325.4L3066.54,1398.33L3066.54,1398.34L2877.14,1587.73L2737.71,1448.3L2737.71,1714.24L2829.34,1714.24L2896.63,1649.26L3184.12,1371.64L3139.47,1325.4Z" style="fill:url(#_Radial1);fill-rule:nonzero;"/>
        </g>
        <g id="path947" transform="matrix(0.264583,0,0,0.264583,0,0)">
            <path d="M2413.03,752.366L2337.27,828.126L2413.03,903.881L2488.79,828.126L2413.03,752.366ZM2878.16,752.366L2802.41,828.126L2878.16,903.881L2953.92,828.126L2878.16,752.366ZM2413.03,1231.4L2337.27,1307.15L2413.03,1382.91L2488.79,1307.15L2413.03,1231.4ZM2878.16,1231.4L2802.41,1307.15L2878.16,1382.91L2953.92,1307.15L2878.16,1231.4Z" style="fill:white;fill-rule:nonzero;"/>
        </g>
    </g>
    <defs>
        <radialGradient id="_Radial1" cx="0" cy="0" r="1" gradientUnits="userSpaceOnUse" gradientTransform="matrix(615.835,0,0,644.951,2645.6,1069.29)"><stop offset="0" style="stop-color:rgb(97,44,117);stop-opacity:1"/><stop offset="0" style="stop-color:rgb(191,153,195);stop-opacity:1"/><stop offset="0.7" style="stop-color:rgb(123,81,144);stop-opacity:1"/><stop offset="1" style="stop-color:rgb(97,44,117);stop-opacity:1"/></radialGradient>
    </defs>
</svg>
